resources/haticons/SVG/speaker_notes_off.svg

<!-- Generated by IcoMoon.io -->
<svg version="1.1" xmlns="http://www.w3.org/2000/svg" width="24" height="24" viewBox="0 0 24 24">
<title>speaker_notes_off</title>
<path d="M20.016 2.016q0.797 0 1.383 0.586t0.586 1.383v12q0 0.797-0.563 1.383t-1.359 0.633l-6.984-6.984h4.922v-2.016h-6.938l-0.984-0.984h7.922v-2.016h-8.016v1.922l-5.906-5.906h15.938zM6 11.016h2.016l-2.016-2.016v2.016zM8.016 14.016v-2.016h-2.016v2.016h2.016zM1.266 1.734l20.719 20.719-1.266 1.266-5.719-5.719h-9l-3.984 3.984v-16.969l-2.016-2.016z"></path>
</svg>

<svg xmlns="http://www.w3.org/2000/svg" width="24" height="24"><path d="M20.016 2.016q.797 0 1.383.586t.586 1.383v12q0 .797-.563 1.383t-1.359.633l-6.984-6.984h4.922V9.001h-6.938l-.984-.984h7.922V6.001H9.985v1.922L4.079 2.017h15.938zM6 11.016h2.016L6 9v2.016zm2.016 3V12H6v2.016h2.016zM1.266 1.734l20.719 20.719-1.266 1.266L15 18H6l-3.984 3.984V5.015L0 2.999z"/></svg>
